X:282
T:Time Will End
M:4/4
C:Jeremiah McLane
K:GMaj
(3DEF)|"G"G2gf "C"e3d|"Em"edBd "D"A2GA|"Em"B2AG "C"EG"G"DE|"Am"GA"C"cB
"C/D"A2"
D"GF|
"G"G2gf "C"e3d|"Em"edBd "D"A2GA|"G"B2AG "C"EG"G"DE|"C"GA"D"BA "G"G3:|
F|"Em"E2ED"C"E2ED|"Dsus"EFGA "G"BA"D/F#"GF|"Em"E2ED "C"EFGA|"Dsus"(A4 A)BAG|
"Em"E2ED"C"E2ED|"Dsus"EFGA "G"BG gf|"C"(3efg) "Em"dB "D"AGBA|"G"G3A
BA"D/F#"GF||
"Em"E2ED"C"E2ED|"Dsus"EFGA "G"BAGF|"Em"E2ED "C"EFGA|"Dsus"(A4 A)BAG|
"Em"X:280
T:Neon Luv Jig
M:6/8
L:1/8
C:Frederick E. Wilson copyright 2005
R:Jig
K:EDor
B|e2Bf2B|g3 fed|Bed e2d|BdB A2B|e2Bf2B|g3fed|Bed BAG|1_BAG E2 =B:|2_BAG
E2 A||
(_B3 B)AB|AGE AGE|(_B3 B)AB|AGE G2A|(_B3 B)=Bd|e2Bf2B|g_ba ged|1(e3 e2)A
:|2e6||
ega _b2=b|_bag ed=B|_B=B_B AGE|F(A2 A3)|_B=B(e e)de|_b2 (=b b)_b=b|_bag
ede|1z6:|2z3z2B||
e2Bf2B|g3 fga|!
_b=b_b ag(_b|_b)ag ed(e|e2) Bf2B|g3 fga|_b=b_b age|1z6:|2z
3z2B||E2ED "G"GABG|"C"edcB "D"AGFD|"Em"EFGA "C"BAGF|"Dsus"(G4 G)||
